X:1
T:Gavotto. SenH.009
T:Gavotto. SenH.009
T:in Hand A
C:in Hand A
L:1/8
Q:1/4=100
M:2/2
K:G
V:1 treble 
V:1
"^Allegro" d | gdgd a3 d | b(g/a/) (b/a/)(g/a/) a3 d | bd b(a/g/) a(b/a/) (b/a/)(g/f/) | %4
 (b/a/)(g/f/) e>d d3 || d | (g/f/)(g/a/) (b/a/)(g/f/) eGce | (a/g/)(a/b/) (c'/b/)(a/g/) fAda | %8
 d'a c'(b/a/) bd g2- | g/(b/a/g/) d(g/f/) g3 |] %10

